T/true.nl logo.svg

<?xml version="1.0" ?>
<svg xmlns="http://www.w3.org/2000/svg" viewBox="0 0 631.18665 132.28">
	<g id="g10" transform="matrix(1.3333333,0,0,-1.3333333,0,132.28)">
		<g id="g12" transform="scale(0.1)">
			<path d="M 992.148,992.117 H 0 V 793.613 H 396.77 V 0 h 198.535 v 793.613 h 396.843 v 198.504" id="path14" fill="#231f20" fill-opacity="1" fill-rule="nonzero" stroke="none"/>
			<path d="m 4733.86,793.699 h -992.13 v 198.418 h 992.13 V 793.699" id="path16" fill="#ed1c24" fill-opacity="1" fill-rule="nonzero" stroke="none"/>
			<path d="m 4733.86,396.848 h -992.13 v 198.425 h 992.13 V 396.848" id="path18" fill="#ed1c24" fill-opacity="1" fill-rule="nonzero" stroke="none"/>
			<path d="m 4733.86,0 h -992.13 v 198.418 h 992.13 V 0" id="path20" fill="#ed1c24" fill-opacity="1" fill-rule="nonzero" stroke="none"/>
			<path d="M 3486.61,496.055 C 3486.61,222.004 3264.6,0 2990.61,0 2716.6,0 2494.48,222.004 2494.48,496.055 v 496.062 h 198.54 V 496.055 c 0,-164.317 133.15,-297.688 297.59,-297.688 164.48,0 297.69,133.371 297.69,297.688 v 496.062 h 198.31 V 496.055" id="path22" fill="#231f20" fill-opacity="1" fill-rule="nonzero" stroke="none"/>
			<path d="m 1445.63,595.137 v 198.476 h 495.92 c 54.97,0 99.27,-44.402 99.27,-99.211 0,-54.871 -44.3,-99.265 -99.27,-99.265 z M 2246,0 1941.55,396.738 c 164.54,0 297.75,133.313 297.75,297.664 0,164.375 -133.21,297.715 -297.75,297.715 h -694.3 V 0 h 198.38 v 396.738 h 245.8 L 1995.86,0 H 2246" id="path24" fill="#231f20" fill-opacity="1" fill-rule="nonzero" stroke="none"/>
		</g>
	</g>
</svg>

<?xml version="1.0" ?>
<svg xmlns="http://www.w3.org/2000/svg" role="img" viewBox="-12.62 -12.62 656.24 157.24">
	<g fill-opacity="1" fill-rule="nonzero" stroke="none" transform="matrix(1.33333 0 0 -1.33333 0 132.28) scale(.1)">
		<path fill="#231f20" d="M 992.148,992.117 L 0.0,992.117 L 0.0,793.613 L 396.77,793.613 L 396.77,0.0 L 595.305,0.0 L 595.305,793.613 L 992.148,793.613 L 992.148,992.117"/>
		<path fill="#ed1c24" d="M 4733.86,793.699 L 3741.73,793.699 L 3741.73,992.117 L 4733.86,992.117 L 4733.86,793.699"/>
		<path fill="#ed1c24" d="M 4733.86,396.848 L 3741.73,396.848 L 3741.73,595.273 L 4733.86,595.273 L 4733.86,396.848"/>
		<path fill="#ed1c24" d="M 4733.86,0.0 L 3741.73,0.0 L 3741.73,198.418 L 4733.86,198.418 L 4733.86,0.0"/>
		<path fill="#231f20" d="M 3486.61,496.055 C 3486.61,222.004 3264.6,0.0 2990.61,0.0 C 2716.6,0.0 2494.48,222.004 2494.48,496.055 L 2494.48,992.117 L 2693.02,992.117 L 2693.02,496.055 C 2693.02,331.738 2826.17,198.367 2990.61,198.367 C 3155.09,198.367 3288.3,331.738 3288.3,496.055 L 3288.3,992.117 L 3486.61,992.117 L 3486.61,496.055"/>
		<path fill="#231f20" d="M 1445.63,595.137 L 1445.63,793.613 L 1941.55,793.613 C 1996.52,793.613 2040.82,749.211 2040.82,694.402 C 2040.82,639.531 1996.52,595.137 1941.55,595.137 L 1445.63,595.137 M 2246.0,0.0 L 1941.55,396.738 C 2106.09,396.738 2239.3,530.051 2239.3,694.402 C 2239.3,858.777 2106.09,992.117 1941.55,992.117 L 1247.25,992.117 L 1247.25,0.0 L 1445.63,0.0 L 1445.63,396.738 L 1691.43,396.738 L 1995.86,0.0 L 2246.0,0.0"/>
	</g>
</svg>
